src/assets/img/logo-green.svg

<svg width="164" height="46" viewBox="0 0 164 46" fill="none" xmlns="http://www.w3.org/2000/svg">
<path d="M62.7754 28.7599C62.4602 30.4023 61.6591 31.6811 60.3851 32.6214C59.1243 33.5492 57.5745 34.0256 55.762 34.0256C53.7 34.0256 51.9532 33.3611 50.5217 32.0196C49.1032 30.6906 48.3809 29.0482 48.3809 27.0924C48.3809 25.1491 49.1032 23.5067 50.5348 22.1652C51.9664 20.8237 53.7132 20.1592 55.7752 20.1592C57.5219 20.1592 59.0323 20.6231 60.3326 21.5508C61.6197 22.4786 62.434 23.7073 62.7754 25.2494L59.4132 26.0016C59.2031 25.0613 58.7828 24.3592 58.1392 23.8703C57.4957 23.3813 56.7077 23.1431 55.7883 23.1431C54.6851 23.1431 53.7394 23.5192 52.9777 24.2715C52.2159 25.0237 51.8219 25.964 51.8219 27.0799C51.8219 28.2082 52.2028 29.1485 52.9777 29.9008C53.7394 30.653 54.6851 31.0417 55.7883 31.0417C56.6945 31.0417 57.4825 30.7909 58.1261 30.302C58.7696 29.813 59.2031 29.0733 59.4395 28.1079L62.7754 28.7599Z" fill="#1BB36C"/>
<path d="M77.9718 27.7433C77.9718 29.649 77.407 31.166 76.2775 32.3069C75.148 33.4478 73.6639 34.0245 71.812 34.0245C69.9208 34.0245 68.3841 33.4478 67.2415 32.3069C66.0988 31.166 65.5078 29.649 65.5078 27.7433V20.459H68.9357V27.7433C68.9357 28.7463 69.1984 29.5487 69.7237 30.1254C70.2491 30.7146 70.9452 31.003 71.8252 31.003C72.6526 31.003 73.3224 30.7146 73.8215 30.1254C74.3206 29.5361 74.5701 28.7463 74.5701 27.7433V20.459H77.998V27.7433H77.9718Z" fill="#1BB36C"/>
<path d="M91.4327 33.7236H81.1621V20.459H84.5769V30.8776H91.4327V33.7236Z" fill="#1BB36C"/>
<path d="M97.9202 23.305V33.7236H94.5186V23.305H90.0137V20.459H102.425V23.305H97.9202Z" fill="#1BB36C"/>
<path d="M117.294 27.7433C117.294 29.649 116.729 31.166 115.6 32.3069C114.47 33.4478 112.986 34.0245 111.134 34.0245C109.243 34.0245 107.719 33.4478 106.564 32.3069C105.408 31.166 104.83 29.649 104.83 27.7433V20.459H108.258V27.7433C108.258 28.7463 108.521 29.5487 109.046 30.1254C109.571 30.7146 110.267 31.003 111.147 31.003C111.975 31.003 112.645 30.7146 113.131 30.1254C113.63 29.5361 113.879 28.7463 113.879 27.7433V20.459H117.307V27.7433H117.294Z" fill="#1BB36C"/>
<path d="M129.522 33.7236L125.332 29.1725H124.334V33.7236H120.906V20.459H127.946C129.456 20.459 130.665 20.8602 131.571 21.6626C132.49 22.465 132.937 23.5056 132.937 24.7969C132.937 25.8752 132.608 26.7904 131.965 27.5427C131.308 28.2824 130.428 28.7839 129.286 29.0221L133.646 33.7362H129.522V33.7236ZM127.565 26.4394C128.169 26.4394 128.655 26.2889 129.023 26.0005C129.391 25.7122 129.575 25.3235 129.575 24.8346C129.575 24.3581 129.391 23.982 129.023 23.6811C128.655 23.3928 128.169 23.2423 127.565 23.2423H124.321V26.4268H127.565V26.4394Z" fill="#1BB36C"/>
<path d="M147.488 33.7236H136.652V20.459H147.422V23.2674H140.08V25.7623H146.818V28.4203H140.08V30.9152H147.488V33.7236Z" fill="#1BB36C"/>
<path d="M160.307 33.7236L159.335 31.3039H153.477L152.506 33.7236H148.828L154.633 20.459H158.14L163.958 33.7236H160.307ZM156.406 24.145L154.646 28.508H158.192L156.406 24.145Z" fill="#1BB36C"/>
<path d="M38.3781 13.0766C35.7514 5.2532 28.1995 0 19.5969 0C10.968 0 3.21909 5.49141 0.723681 13.365C-0.0380756 15.7721 -0.195679 18.4176 0.237734 21.1256C0.369072 21.9531 0.552942 22.7931 0.802483 23.6331C0.960088 24.1848 1.15709 24.7615 1.38037 25.3633C2.2866 24.5484 3.3767 23.5078 4.55873 22.3418C7.8947 19.0444 11.9399 14.7566 14.6717 11.8855L16.2346 10.2306C18.7826 7.54756 21.475 6.1559 24.2199 6.08068C29.3815 5.9553 33.1115 9.84192 34.5825 14.23C35.3836 16.6122 35.4099 19.3203 34.6744 22.0534C34.6219 22.2415 34.5693 22.4421 34.5037 22.6301C33.0984 27.3442 29.3684 34.3527 19.5706 41.2984C18.8351 40.7719 18.139 40.2578 17.4692 39.7313C21.4619 36.1455 26.8336 30.604 29.7886 26.266C31.8375 23.257 32.9276 20.06 32.8751 17.2641C32.8225 14.5435 31.6011 12.0234 29.5916 10.5189C27.2144 8.73862 23.5501 8.75116 20.687 10.544C18.5462 11.8855 15.4991 15.2581 15.1183 15.6844C12.5046 18.8062 8.56453 22.5925 5.62257 25.3006C4.3486 26.4666 3.25849 27.4445 2.54927 28.0714C3.08775 29.1747 3.73131 30.3282 4.5062 31.5192C4.92648 31.1556 6.02971 30.1902 7.47443 28.8738C10.5346 26.078 15.1708 21.7149 18.1916 18.0916C19.019 17.1763 21.4619 14.5936 22.8803 13.7035C24.2725 12.8384 26.1375 12.7381 27.1488 13.4903C27.9762 14.1172 28.8824 15.4462 28.9087 17.3143C28.9481 19.3579 28.0813 21.7901 26.4658 24.1723C23.2086 28.9616 17.9026 34.1145 14.4747 37.1736C13.0825 38.4148 11.9924 39.3175 11.4933 39.6936C11.5065 39.7062 11.5196 39.7187 11.5328 39.7313C11.6904 39.8817 11.848 40.0196 12.0056 40.1701C12.7805 40.8596 13.5947 41.5617 14.4747 42.2513C15.5911 43.1415 16.7862 44.0316 18.0734 44.9218L19.5969 46L21.1204 44.9218C32.4548 37.1611 36.7495 29.0744 38.365 23.6457C38.4307 23.42 38.4963 23.2069 38.5489 22.9812C39.4551 19.571 39.4025 16.1357 38.3781 13.0766ZM13.2927 7.67294L11.7166 9.32788C9.61522 11.547 6.71267 14.6187 3.99398 17.3895C4.05965 16.3739 4.23039 15.396 4.51933 14.4557C6.37119 8.60071 11.8874 4.40065 18.1916 3.84901C16.4973 4.7517 14.8556 6.03053 13.2927 7.67294Z" fill="#1BB36C"/>
<path d="M25.8087 19.6338C26.4128 18.7561 26.1633 17.5776 25.2439 17.0009C24.3377 16.4242 23.09 16.6624 22.4858 17.54C18.5589 23.1819 13.5286 27.921 9.35211 31.6447C8.61662 32.2966 7.9074 32.9235 7.23758 33.5002L6.41016 34.2274C7.15878 35.1928 7.99934 36.1832 8.93183 37.1737L9.94313 36.2835C10.5473 35.7444 11.1908 35.1802 11.8607 34.591C16.2342 30.7294 21.5796 25.727 25.8087 19.6338Z" fill="#1BB36C"/>
</svg>

<svg width="164" height="46" fill="none" xmlns="http://www.w3.org/2000/svg"><path d="M62.775 28.76c-.315 1.642-1.116 2.921-2.39 3.861-1.26.928-2.81 1.405-4.623 1.405-2.062 0-3.809-.665-5.24-2.006-1.419-1.33-2.141-2.972-2.141-4.928 0-1.943.722-3.585 2.154-4.927 1.431-1.341 3.178-2.006 5.24-2.006 1.747 0 3.257.464 4.558 1.392 1.287.928 2.101 2.156 2.442 3.698l-3.362.753c-.21-.94-.63-1.643-1.274-2.132-.643-.489-1.431-.727-2.35-.727-1.104 0-2.05.376-2.811 1.128-.762.753-1.156 1.693-1.156 2.809 0 1.128.38 2.069 1.156 2.82.761.753 1.707 1.142 2.81 1.142.907 0 1.695-.251 2.338-.74.644-.489 1.077-1.229 1.314-2.194l3.335.652zM77.972 27.743c0 1.906-.565 3.423-1.694 4.564-1.13 1.14-2.614 1.718-4.466 1.718-1.891 0-3.428-.577-4.57-1.718-1.143-1.141-1.734-2.658-1.734-4.564V20.46h3.428v7.284c0 1.003.262 1.806.788 2.382.525.59 1.221.878 2.101.878.828 0 1.497-.288 1.996-.878.5-.589.75-1.379.75-2.382V20.46h3.427v7.284h-.026zM91.433 33.724h-10.27V20.459h3.414v10.419h6.856v2.846zM97.92 23.305v10.419H94.52V23.305h-4.505v-2.846h12.411v2.846H97.92zM117.294 27.743c0 1.906-.565 3.423-1.694 4.564-1.13 1.14-2.614 1.718-4.466 1.718-1.891 0-3.415-.577-4.57-1.718-1.156-1.141-1.734-2.658-1.734-4.564V20.46h3.428v7.284c0 1.003.263 1.806.788 2.382.525.59 1.221.878 2.101.878.828 0 1.498-.288 1.984-.878.499-.589.748-1.379.748-2.382V20.46h3.428v7.284h-.013zM129.522 33.724l-4.19-4.551h-.998v4.55h-3.428V20.46h7.04c1.51 0 2.719.401 3.625 1.204.919.802 1.366 1.843 1.366 3.134 0 1.078-.329 1.993-.972 2.746-.657.74-1.537 1.24-2.679 1.48l4.36 4.713h-4.124v-.012zm-1.957-7.285c.604 0 1.09-.15 1.458-.439.368-.288.552-.677.552-1.165 0-.477-.184-.853-.552-1.154-.368-.288-.854-.439-1.458-.439h-3.244v3.185h3.244v.012zM147.488 33.724h-10.836V20.459h10.77v2.808h-7.342v2.495h6.738v2.658h-6.738v2.495h7.408v2.809zM160.307 33.724l-.972-2.42h-5.858l-.971 2.42h-3.678l5.805-13.265h3.507l5.818 13.265h-3.651zm-3.901-9.579l-1.76 4.363h3.546l-1.786-4.363zM38.378 13.077C35.751 5.253 28.2 0 19.597 0 10.968 0 3.219 5.491.724 13.365c-.762 2.407-.92 5.053-.486 7.76.131.828.315 1.668.564 2.508.158.552.355 1.129.578 1.73a98.924 98.924 0 003.179-3.021c3.336-3.298 7.38-7.585 10.113-10.456l1.563-1.655c2.548-2.683 5.24-4.075 7.985-4.15 5.162-.126 8.892 3.76 10.363 8.149.8 2.382.827 5.09.091 7.823-.052.188-.105.39-.17.577-1.406 4.714-5.136 11.723-14.933 18.668a58.313 58.313 0 01-2.102-1.567c3.993-3.586 9.365-9.127 12.32-13.465 2.048-3.009 3.139-6.206 3.086-9.002-.053-2.72-1.274-5.24-3.283-6.745-2.378-1.78-6.042-1.768-8.905.025-2.14 1.341-5.188 4.714-5.569 5.14-2.613 3.122-6.553 6.909-9.495 9.617a251.559 251.559 0 01-3.074 2.77 32.265 32.265 0 001.957 3.448c.42-.363 1.524-1.329 2.968-2.645 3.06-2.796 7.697-7.16 10.718-10.782.827-.916 3.27-3.498 4.688-4.388 1.393-.866 3.258-.966 4.269-.214.827.627 1.733 1.956 1.76 3.824.04 2.044-.828 4.476-2.443 6.858-3.257 4.79-8.563 9.942-11.991 13.002-1.393 1.24-2.483 2.144-2.982 2.52l.04.037c.157.15.315.289.473.44.774.689 1.589 1.39 2.469 2.08 1.116.89 2.311 1.78 3.598 2.67L19.597 46l1.523-1.078c11.335-7.76 15.63-15.848 17.245-21.276.066-.226.131-.44.184-.665.906-3.41.854-6.845-.17-9.904zM13.293 7.673l-1.576 1.655c-2.102 2.219-5.004 5.29-7.723 8.062.066-1.016.236-1.994.525-2.934C6.371 8.6 11.887 4.4 18.192 3.849c-1.695.903-3.336 2.182-4.9 3.824z" fill="#1BB36C"/><path d="M25.809 19.634c.604-.878.354-2.056-.565-2.633-.906-.577-2.154-.339-2.758.539-3.927 5.642-8.957 10.381-13.134 14.105-.735.652-1.445 1.278-2.114 1.855l-.828.727c.749.966 1.59 1.956 2.522 2.947l1.011-.89c.604-.54 1.248-1.104 1.918-1.693 4.373-3.862 9.719-8.864 13.948-14.957z" fill="#1BB36C"/></svg>
